packages/core/assets/Icons/copy_all.svg

<svg viewBox="0 0 20 20" fill="none" xmlns="http://www.w3.org/2000/svg">
<path d="M7.5 15C7.04167 15 6.64931 14.8368 6.32292 14.5104C5.99653 14.184 5.83333 13.7917 5.83333 13.3334V3.33335C5.83333 2.87502 5.99653 2.48266 6.32292 2.15627C6.64931 1.82988 7.04167 1.66669 7.5 1.66669H15C15.4583 1.66669 15.8507 1.82988 16.1771 2.15627C16.5035 2.48266 16.6667 2.87502 16.6667 3.33335V13.3334C16.6667 13.7917 16.5035 14.184 16.1771 14.5104C15.8507 14.8368 15.4583 15 15 15H7.5ZM7.5 13.3334H15V3.33335H7.5V13.3334ZM3.33333 6.66669C3.09722 6.66669 2.89931 6.58683 2.73958 6.4271C2.57986 6.26738 2.5 6.06946 2.5 5.83335C2.5 5.59724 2.57986 5.39933 2.73958 5.2396C2.89931 5.07988 3.09722 5.00002 3.33333 5.00002C3.56944 5.00002 3.76736 5.07988 3.92708 5.2396C4.08681 5.39933 4.16667 5.59724 4.16667 5.83335C4.16667 6.06946 4.08681 6.26738 3.92708 6.4271C3.76736 6.58683 3.56944 6.66669 3.33333 6.66669ZM3.33333 9.58335C3.09722 9.58335 2.89931 9.50349 2.73958 9.34377C2.57986 9.18405 2.5 8.98613 2.5 8.75002C2.5 8.51391 2.57986 8.31599 2.73958 8.15627C2.89931 7.99655 3.09722 7.91669 3.33333 7.91669C3.56944 7.91669 3.76736 7.99655 3.92708 8.15627C4.08681 8.31599 4.16667 8.51391 4.16667 8.75002C4.16667 8.98613 4.08681 9.18405 3.92708 9.34377C3.76736 9.50349 3.56944 9.58335 3.33333 9.58335ZM3.33333 12.5C3.09722 12.5 2.89931 12.4202 2.73958 12.2604C2.57986 12.1007 2.5 11.9028 2.5 11.6667C2.5 11.4306 2.57986 11.2327 2.73958 11.0729C2.89931 10.9132 3.09722 10.8334 3.33333 10.8334C3.56944 10.8334 3.76736 10.9132 3.92708 11.0729C4.08681 11.2327 4.16667 11.4306 4.16667 11.6667C4.16667 11.9028 4.08681 12.1007 3.92708 12.2604C3.76736 12.4202 3.56944 12.5 3.33333 12.5ZM3.33333 15.4167C3.09722 15.4167 2.89931 15.3368 2.73958 15.1771C2.57986 15.0174 2.5 14.8195 2.5 14.5834C2.5 14.3472 2.57986 14.1493 2.73958 13.9896C2.89931 13.8299 3.09722 13.75 3.33333 13.75C3.56944 13.75 3.76736 13.8299 3.92708 13.9896C4.08681 14.1493 4.16667 14.3472 4.16667 14.5834C4.16667 14.8195 4.08681 15.0174 3.92708 15.1771C3.76736 15.3368 3.56944 15.4167 3.33333 15.4167ZM3.33333 18.3334C3.09722 18.3334 2.89931 18.2535 2.73958 18.0938C2.57986 17.934 2.5 17.7361 2.5 17.5C2.5 17.2639 2.57986 17.066 2.73958 16.9063C2.89931 16.7465 3.09722 16.6667 3.33333 16.6667C3.56944 16.6667 3.76736 16.7465 3.92708 16.9063C4.08681 17.066 4.16667 17.2639 4.16667 17.5C4.16667 17.7361 4.08681 17.934 3.92708 18.0938C3.76736 18.2535 3.56944 18.3334 3.33333 18.3334ZM6.25 18.3334C6.01389 18.3334 5.81597 18.2535 5.65625 18.0938C5.49653 17.934 5.41667 17.7361 5.41667 17.5C5.41667 17.2639 5.49653 17.066 5.65625 16.9063C5.81597 16.7465 6.01389 16.6667 6.25 16.6667C6.48611 16.6667 6.68403 16.7465 6.84375 16.9063C7.00347 17.066 7.08333 17.2639 7.08333 17.5C7.08333 17.7361 7.00347 17.934 6.84375 18.0938C6.68403 18.2535 6.48611 18.3334 6.25 18.3334ZM9.16667 18.3334C8.93056 18.3334 8.73264 18.2535 8.57292 18.0938C8.41319 17.934 8.33333 17.7361 8.33333 17.5C8.33333 17.2639 8.41319 17.066 8.57292 16.9063C8.73264 16.7465 8.93056 16.6667 9.16667 16.6667C9.40278 16.6667 9.60069 16.7465 9.76042 16.9063C9.92014 17.066 10 17.2639 10 17.5C10 17.7361 9.92014 17.934 9.76042 18.0938C9.60069 18.2535 9.40278 18.3334 9.16667 18.3334ZM12.0833 18.3334C11.8472 18.3334 11.6493 18.2535 11.4896 18.0938C11.3299 17.934 11.25 17.7361 11.25 17.5C11.25 17.2639 11.3299 17.066 11.4896 16.9063C11.6493 16.7465 11.8472 16.6667 12.0833 16.6667C12.3194 16.6667 12.5174 16.7465 12.6771 16.9063C12.8368 17.066 12.9167 17.2639 12.9167 17.5C12.9167 17.7361 12.8368 17.934 12.6771 18.0938C12.5174 18.2535 12.3194 18.3334 12.0833 18.3334Z" fill="currentColor"/>
</svg>

<svg xmlns="http://www.w3.org/2000/svg" width="20" height="20" fill="none" viewBox="0 0 20 20">
  <path fill="#201F1F" d="M7.5 15c-.458 0-.85-.163-1.177-.49a1.605 1.605 0 0 1-.49-1.177v-10c0-.458.164-.85.49-1.177.326-.326.719-.49 1.177-.49H15c.458 0 .85.164 1.177.49.326.327.49.719.49 1.177v10c0 .459-.164.851-.49 1.177-.326.327-.719.49-1.177.49H7.5Zm0-1.667H15v-10H7.5v10ZM3.333 6.667a.806.806 0 0 1-.593-.24.806.806 0 0 1-.24-.594c0-.236.08-.434.24-.593.16-.16.357-.24.593-.24s.434.08.594.24c.16.16.24.357.24.593s-.08.434-.24.594a.806.806 0 0 1-.594.24Zm0 2.916a.806.806 0 0 1-.593-.24.806.806 0 0 1-.24-.593c0-.236.08-.434.24-.594.16-.16.357-.24.593-.24s.434.08.594.24c.16.16.24.358.24.594s-.08.434-.24.594a.806.806 0 0 1-.594.24Zm0 2.917a.806.806 0 0 1-.593-.24.806.806 0 0 1-.24-.593c0-.236.08-.434.24-.594.16-.16.357-.24.593-.24s.434.08.594.24c.16.16.24.358.24.594s-.08.434-.24.593a.806.806 0 0 1-.594.24Zm0 2.917a.806.806 0 0 1-.593-.24.806.806 0 0 1-.24-.594c0-.236.08-.434.24-.593.16-.16.357-.24.593-.24s.434.08.594.24c.16.16.24.357.24.593s-.08.434-.24.594a.806.806 0 0 1-.594.24Zm0 2.916a.806.806 0 0 1-.593-.24.807.807 0 0 1-.24-.593c0-.236.08-.434.24-.594.16-.16.357-.24.593-.24s.434.08.594.24c.16.16.24.358.24.594s-.08.434-.24.594a.806.806 0 0 1-.594.24Zm2.917 0a.806.806 0 0 1-.594-.24.807.807 0 0 1-.24-.593c0-.236.08-.434.24-.594.16-.16.358-.24.594-.24s.434.08.594.24c.16.16.24.358.24.594s-.08.434-.24.594a.806.806 0 0 1-.594.24Zm2.917 0a.806.806 0 0 1-.594-.24.807.807 0 0 1-.24-.593c0-.236.08-.434.24-.594.16-.16.358-.24.594-.24s.434.08.593.24c.16.16.24.358.24.594s-.08.434-.24.594a.806.806 0 0 1-.593.24Zm2.916 0a.806.806 0 0 1-.593-.24.807.807 0 0 1-.24-.593c0-.236.08-.434.24-.594.16-.16.357-.24.593-.24s.434.08.594.24c.16.16.24.358.24.594s-.08.434-.24.594a.807.807 0 0 1-.594.24Z"/>
</svg>
